X:1
T:Polly Had A Poodle
D:Matt McGinn, cassette &quot;The Portrait&quot;
M:C|
L:1/8
Q:1/2=100
K:G
dddd B2B2|cBA2 cBA2|dddd B2B2|AGFG A4 |
dddd B2B2|cBA2 cBA2|dddd B2B2|AGFA G4||
AGFG A2A2|BAGA B4  |cBAB c2c2|dcBc d4 |
dddd B2B2|cBA2 cBA2|dddd B2B2|AGFA G4||
